src/img/icons/brands/twitter.svg

<svg xmlns="http://www.w3.org/2000/svg" viewBox="0 0 512 512"><!--! Font Awesome Pro 6.1.1 by @fontawesome - https://fontawesome.com License - https://fontawesome.com/license (Commercial License) Copyright 2022 Fonticons, Inc. --><path d="M459.37 151.716c.325 4.548.325 9.097.325 13.645 0 138.72-105.583 298.558-298.558 298.558-59.452 0-114.68-17.219-161.137-47.106 8.447.974 16.568 1.299 25.34 1.299 49.055 0 94.213-16.568 130.274-44.832-46.132-.975-84.792-31.188-98.112-72.772 6.498.974 12.995 1.624 19.818 1.624 9.421 0 18.843-1.3 27.614-3.573-48.081-9.747-84.143-51.98-84.143-102.985v-1.299c13.969 7.797 30.214 12.67 47.431 13.319-28.264-18.843-46.781-51.005-46.781-87.391 0-19.492 5.197-37.36 14.294-52.954 51.655 63.675 129.3 105.258 216.365 109.807-1.624-7.797-2.599-15.918-2.599-24.04 0-57.828 46.782-104.934 104.934-104.934 30.213 0 57.502 12.67 76.67 33.137 23.715-4.548 46.456-13.32 66.599-25.34-7.798 24.366-24.366 44.833-46.132 57.827 21.117-2.273 41.584-8.122 60.426-16.243-14.292 20.791-32.161 39.308-52.628 54.253z"/></svg>

<svg width="512" height="512" viewBox="0 0 512 512" fill="none" xmlns="http://www.w3.org/2000/svg">
<path d="M459.37 151.716C459.695 156.264 459.695 160.813 459.695 165.361C459.695 304.081 354.112 463.919 161.137 463.919C101.685 463.919 46.457 446.7 0 416.813C8.447 417.787 16.568 418.112 25.34 418.112C74.395 418.112 119.553 401.544 155.614 373.28C109.482 372.305 70.822 342.092 57.502 300.508C64 301.482 70.497 302.132 77.32 302.132C86.741 302.132 96.163 300.832 104.934 298.559C56.853 288.812 20.791 246.579 20.791 195.574V194.275C34.76 202.072 51.005 206.945 68.222 207.594C39.958 188.751 21.441 156.589 21.441 120.203C21.441 100.711 26.638 82.843 35.735 67.249C87.39 130.924 165.035 172.507 252.1 177.056C250.476 169.259 249.501 161.138 249.501 153.016C249.501 95.188 296.283 48.082 354.435 48.082C384.648 48.082 411.937 60.752 431.105 81.219C454.82 76.671 477.561 67.899 497.704 55.879C489.906 80.245 473.338 100.712 451.572 113.706C472.689 111.433 493.156 105.584 511.998 97.463C497.706 118.254 479.837 136.771 459.37 151.716V151.716Z" fill="white"/>
</svg>
